resources/svg/major-unfulfilled.svg

<svg xmlns="http://www.w3.org/2000/svg" viewBox="0 0 20 20" fill="currentColor"><path fill-rule="evenodd" d="M3 3v11h3.5c.775 0 1.388.662 1.926 1.244l.11.12a2 2 0 0 0 2.927-.001l.111-.119c.538-.582 1.151-1.244 1.926-1.244h3.5v-11h-14zm3-2h-3.5a1.5 1.5 0 0 0-1.5 1.5v15a1.5 1.5 0 0 0 1.5 1.5h15a1.5 1.5 0 0 0 1.5-1.5v-15a1.5 1.5 0 0 0-1.5-1.5h-11.5z"/></svg>

<svg xmlns="http://www.w3.org/2000/svg" viewBox="0 0 20 20" fill="currentColor"><path fill-rule="evenodd" d="M3 3v11h3.5c.775 0 1.388.662 1.926 1.244l.11.12c.366.391.886.636 1.464.636s1.098-.245 1.463-.637l.111-.119C12.112 14.662 12.725 14 13.5 14H17V3H3zm3-2H2.5A1.5 1.5 0 001 2.5v15A1.5 1.5 0 002.5 19h15a1.5 1.5 0 001.5-1.5v-15A1.5 1.5 0 0017.5 1H6z" fill="#5C5F62"/></svg>
